X: 3
T: Reel des Accorde\'onistes
I: Reel des Accordeonistes	R-124	D	reel
C: Marcel Messervier
M: C|
R: reel
K: D
FG| "D"A2df "G"edcB| "D"ABAG F2EF| "A"GAGF EBBB| "D"ABAG FDFG|
    "D"A2df "G"edcB| "D"ABAG F2EF| "Em"GFEF "A"GABc| "D"dfec d2 :|
|:A2| "G"(3BcB GB d2cB| "D"(3ABA FA dAFA| "A"GECE A,ECE| "D"DEFG A2FA|
    "G"(3BcB GB d2cB| "D"(3ABA FA d2cd| "A"efed cBAG| FABc "D"d2 :|
%%text Roaring Jelly  R-124
%%text 03/24/99 

#include "LeftHeader.h"
% ---------- set 48 ----------
% Roddy McCorley (G) / Bonaparte Crossing the Rhine (D) / Mount Cashel's Brigade (A)
%%text Set 48
%%vskip -1cm
